symbols/web/emoji_food_beverage/materialsymbolssharp/emoji_food_beverage_wght600fill1_20px.svg

<svg xmlns="http://www.w3.org/2000/svg" height="20" width="20"><path d="M2.625 18.083v-2.291h13.687v2.291ZM15.021 6.542h1.458V4.208h-1.458ZM2.625 14.208V1.917h4.958v2.541L5.917 5.771v4.125h4.166V5.771L8.417 4.458V1.917h8.062q.959 0 1.625.666.667.667.667 1.625v2.334q0 .958-.667 1.625-.666.666-1.625.666h-1.458v5.375Z"/></svg>

<svg xmlns="http://www.w3.org/2000/svg" height="20" width="20"><path d="M2.625 18.083V15.792H16.312V18.083ZM15.021 6.542H16.479Q16.479 6.542 16.479 6.542Q16.479 6.542 16.479 6.542V4.208Q16.479 4.208 16.479 4.208Q16.479 4.208 16.479 4.208H15.021ZM2.625 14.208V1.917H7.583V4.458L5.917 5.771V9.896H10.083V5.771L8.417 4.458V1.917H16.479Q17.438 1.917 18.104 2.583Q18.771 3.25 18.771 4.208V6.542Q18.771 7.5 18.104 8.167Q17.438 8.833 16.479 8.833H15.021V14.208Z"/></svg>
